X: 100001
P: AABBACCDA
M: 2/4
L: 1/16
K: D
"A"|:\
{^g}a2{c}d2{c}d2{c}d2 | d2c>d e>fg2 |\
{a}g2c2c2c2 | {e}d>cde fga2 |\
{^g}a2{c}d2{c}d2{c}d2 | d2c>d e>fg2 |
{a}g2c2 {a}g2c2 | {f}(.d>.c)de d2 "B"::[K:A] (.c3.d) gabc' |\
d'2c'2 (.e'3.a) | c'2b2 (.d'3.g) |\
b2a2 c'2 | (.e3.f) gabc' |
d'2c'2 (.e'3.a) | c'2b2 (d'3.g) |\
(ba)(ag) a4 "_D.C.""C"::[K:G] [f6A6D6] a2 | (.g>.a)bg (ag)Be |\
d2F2 d2F2 | (.B>.G)GF G4 :|
"D"[|\
[f6A6D6] a2 | (.g>.a)bg (ag)Be |
d2F2F2F2 | {A}G>FGA Bcd2 |\
[f6A6D6] a2 | (.g>.a)bg (ag)Be |\
d2F2d2F2 | {B}(.A>.G)GE G4 "_D.C."|]


